X: 1
T: Mazurka Roule la barrique
C: Teirry Boireau (2007-12-15)
S: folkadanse.free.fr
S: NEFFA 2019 French Jam handout p.3 #1
N: Transcription: Claire Goujon
Z: 2019 John Chambers <jc:trillian.mit.edu>
M: 3/4
L: 1/8
K: Am
E/ E>A |\
"Am"A2- A>B A>G | "Em"E2- E>A "Am"A>B | "F"c>c c>c d>c | "G"c2 B>c B>A |\
"Am"A2- A>B A>G | "Em"E2- E>A "Am"A>B | "F"c>c d>c "G"B>G | "Am"A2- A3/  :|
|: A/ A>A |\
"Am"A2- A>G A>B | "C"c2- c>c d>e | "F"f>e d>e "G"d>c | "Am"A2- A>A A>A |\
"Am"A2- A>G A>B | "C"c2- c>c d>e | "F"d>e d>c "G"B>c | "Am"A2- A3/ :|
